brandFactory_export/1.Light/Documento_Archivo ENEX_1Light.svg

<?xml version="1.0" encoding="UTF-8"?>
<svg width="24px" height="24px" viewBox="0 0 24 24" version="1.1" xmlns="http://www.w3.org/2000/svg" xmlns:xlink="http://www.w3.org/1999/xlink">
    <title>1.Light/Documento_Archivo ENEX_1Light</title>
    <g id="Symbols" stroke="none" stroke-width="1" fill="none" fill-rule="evenodd">
        <g id="1.Light/Documento_Archivo-ENEX_1Light" fill="#5CB615" fill-rule="nonzero">
            <path d="M16.3058824,0.00336134454 C16.5243697,0.00336134454 16.7294118,0.087394958 16.8840336,0.235294118 L23.3747899,6.5210084 C23.4823529,6.61848739 23.5462185,6.75966387 23.5831933,6.90420168 C23.610084,6.96470588 23.6235294,7.02857143 23.6235294,7.09915966 L23.6235294,22.1747899 C23.6235294,22.9579832 22.9478992,23.6201681 22.1478992,23.6201681 L7.22352941,23.6201681 C6.43697479,23.6201681 5.74789916,22.9445378 5.74789916,22.1747899 L5.79159664,18.5310924 L2.72268908,18.5310924 C1.22352941,18.5310924 0.00336134409,17.3109244 0.00336134409,15.8084034 L0.00336134409,10.7932773 C0.00336134409,9.2907563 1.22352941,8.07058824 2.72268908,8.07058824 L5.74789916,8.07058824 L5.74789916,1.4487395 C5.74789916,0.692436975 6.45042017,0.00336134454 7.22352941,0.00336134454 L16.3058824,0.00336134454 Z M15.4789916,0.994957983 L7.22016807,0.994957983 C6.99831933,0.994957983 6.73277311,1.24033613 6.73277311,1.4487395 L6.73277311,8.07058824 L14.7764706,8.07058824 C16.2756303,8.07058824 17.4957983,9.2907563 17.4957983,10.7932773 L17.4957983,15.8084034 C17.4957983,17.3109244 16.2756303,18.5310924 14.7764706,18.5310924 L6.77647059,18.5310924 L6.73277311,22.1815126 C6.73277311,22.4 6.97815126,22.6285714 7.22016807,22.6285714 L22.1478992,22.6285714 L22.1478992,22.6319328 C22.3966387,22.6319328 22.6352941,22.410084 22.6352941,22.1781513 L22.6352941,7.92268908 L19.5529412,7.92268908 C18.3764706,7.92268908 17.3647059,7.54285714 16.6218487,6.82352941 C15.8756303,6.10084034 15.4789916,5.1092437 15.4789916,3.96302521 L15.4789916,0.994957983 Z M14.7798319,9.06218487 L2.71932773,9.06218487 C1.76806723,9.06218487 0.991596638,9.83865546 0.991596638,10.7932773 L0.991596638,15.8084034 C0.991596638,16.7630252 1.76470588,17.5394958 2.71932773,17.5394958 L14.7798319,17.5394958 C15.7310924,17.5394958 16.507563,16.7630252 16.507563,15.8084034 L16.507563,10.7932773 C16.507563,9.83865546 15.7344538,9.06218487 14.7798319,9.06218487 Z M5.83865546,11.3478992 L7.6907563,13.8521008 L7.6907563,11.3478992 L8.47394958,11.3478992 L8.47394958,15.2571429 L7.75798319,15.2571429 L5.96302521,12.8840336 L5.96302521,15.2571429 L5.17983193,15.2571429 L5.17983193,11.3478992 L5.83865546,11.3478992 Z M4.4907563,11.3478992 L4.42352941,11.9932773 L2.74285714,11.9932773 L2.74285714,12.9411765 L4.08739496,12.9411765 L4.08739496,13.610084 L2.74285714,13.610084 L2.74285714,14.6084034 L4.5210084,14.6084034 L4.5210084,15.2537815 L1.85210084,15.2537815 L1.85210084,11.3478992 L4.4907563,11.3478992 Z M11.9630252,11.3478992 L11.8957983,11.9932773 L10.2151261,11.9932773 L10.2151261,12.9411765 L11.5596639,12.9411765 L11.5596639,13.610084 L10.2151261,13.610084 L10.2151261,14.6084034 L11.9932773,14.6084034 L11.9932773,15.2537815 L9.32436975,15.2537815 L9.32436975,11.3478992 L11.9630252,11.3478992 Z M13.3478992,11.3478992 L14.1243697,12.6386555 L14.8336134,11.3478992 L15.7815126,11.3478992 L14.5008403,13.2605042 L15.7478992,15.2537815 L14.7596639,15.2537815 L13.9831933,13.9294118 L13.2806723,15.2537815 L12.3159664,15.2537815 L13.610084,13.307563 L12.4168067,11.3478992 L13.3478992,11.3478992 Z M16.4705882,1.21008403 L16.4705882,3.95966387 C16.4705882,4.83361345 16.7596639,5.57647059 17.3109244,6.10756303 C17.8655462,6.64201681 18.6420168,6.92773109 19.5529412,6.92773109 L22.3731092,6.92773109 L16.4705882,1.21008403 Z" id="Documento_Archivo-ENEX_1Light"></path>
        </g>
    </g>
</svg>

<svg width="24" height="24" viewBox="0 0 24 24" xmlns="http://www.w3.org/2000/svg"><path d="M16.306.003c.218 0 .423.084.578.232l6.49 6.286a.766.766 0 01.21.383.47.47 0 01.04.195v15.076c0 .783-.676 1.445-1.476 1.445H7.224c-.787 0-1.476-.675-1.476-1.445l.044-3.644h-3.07c-1.498 0-2.719-1.22-2.719-2.723v-5.015a2.723 2.723 0 012.72-2.722h3.025V1.449c0-.757.702-1.446 1.476-1.446h9.082zm-.827.992H7.22c-.222 0-.487.245-.487.454V8.07h8.043c1.5 0 2.72 1.22 2.72 2.722v5.015a2.723 2.723 0 01-2.72 2.723h-8l-.043 3.65c0 .219.245.448.487.448h14.928v.003c.249 0 .487-.222.487-.454V7.923h-3.082c-1.177 0-2.188-.38-2.931-1.1-.746-.722-1.143-1.714-1.143-2.86V.995zm-.7 8.067H2.72c-.95 0-1.727.777-1.727 1.731v5.015a1.73 1.73 0 001.727 1.731h12.06c.952 0 1.729-.776 1.729-1.73v-5.016a1.73 1.73 0 00-1.728-1.73zm-8.94 2.286l1.852 2.504v-2.504h.783v3.91h-.716l-1.795-2.374v2.373H5.18v-3.91h.659zm-1.348 0l-.067.645H2.743v.948h1.344v.67H2.743v.997H4.52v.646H1.852v-3.906h2.639zm7.472 0l-.067.645h-1.68v.948h1.344v.67h-1.345v.997h1.778v.646H9.324v-3.906h2.639zm1.385 0l.776 1.29.71-1.29h.948L14.5 13.26l1.247 1.993h-.988l-.777-1.325-.702 1.325h-.965l1.294-1.946-1.193-1.96h.93zM16.47 1.21v2.75c0 .874.289 1.616.84 2.148.555.534 1.331.82 2.242.82h2.82L16.471 1.21z" fill="#5CB615" fill-rule="nonzero"/></svg>
